Origami/24x24/apps/winefile.svg

<svg width="24" height="24" version="1" xmlns="http://www.w3.org/2000/svg">
 <rect x="3" y="2" width="18" height="12" rx=".75" ry=".75" style="fill:#525252"/>
 <rect x="3" y="3.5" width="18" height="12" rx=".75" ry=".75" style="opacity:.1"/>
 <rect x="3" y="4" width="18" height="12" rx=".75" ry=".75" style="fill:#89e058"/>
 <rect x="3" y="5.5" width="18" height="12" rx=".75" ry=".75" style="opacity:.1"/>
 <rect x="3" y="6" width="18" height="12" rx=".75" ry=".75" style="fill:#ffcd54"/>
 <rect x="2" y="8.5" width="20" height="14" rx="1" ry="1" style="opacity:.2"/>
 <rect x="2" y="8" width="20" height="14" rx="1" ry="1" style="fill:#8e8e8e"/>
 <rect x="9" y="13.5" width="6" height="2" rx=".5" ry=".5" style="opacity:.2"/>
 <rect x="9" y="13" width="6" height="2" rx=".5" ry=".5" style="fill:#ececec"/>
 <path d="m3.75 2c-0.4155 0-0.75 0.3345-0.75 0.75v0.5c0-0.4155 0.3345-0.75 0.75-0.75h16.5c0.416 0 0.75 0.3345 0.75 0.75v-0.5c0-0.4155-0.334-0.75-0.75-0.75z" style="fill:#ffffff;opacity:.1"/>
 <path d="m3.75 4c-0.4155 0-0.75 0.3345-0.75 0.75v0.5c0-0.4155 0.3345-0.75 0.75-0.75h16.5c0.416 0 0.75 0.3345 0.75 0.75v-0.5c0-0.4155-0.334-0.75-0.75-0.75z" style="fill:#ffffff;opacity:.1"/>
 <path d="m3.75 6c-0.4155 0-0.75 0.3345-0.75 0.75v0.5c0-0.4155 0.3345-0.75 0.75-0.75h16.5c0.416 0 0.75 0.3345 0.75 0.75v-0.5c0-0.4155-0.334-0.75-0.75-0.75z" style="fill:#ffffff;opacity:.1"/>
 <circle cx="18" cy="18" r="6" style="fill:#48aeff"/>
 <rect x="15" y="15" width="2" height="2" rx=".25" ry=".25" style="fill:#ffffff"/>
 <rect x="19" y="15" width="2" height="2" rx=".25" ry=".25" style="fill:#ffffff"/>
 <rect x="19" y="19" width="2" height="2" rx=".25" ry=".25" style="fill:#ffffff"/>
 <rect x="15" y="19" width="2" height="2" rx=".25" ry=".25" style="fill:#ffffff"/>
</svg>

<svg xmlns="http://www.w3.org/2000/svg" width="24" height="24" version="1">
 <rect style="fill:#525252" width="18" height="12" x="3" y="2" rx=".75" ry=".75"/>
 <rect style="opacity:0.1" width="18" height="12" x="3" y="3.5" rx=".75" ry=".75"/>
 <rect style="fill:#89e058" width="18" height="12" x="3" y="4" rx=".75" ry=".75"/>
 <rect style="opacity:0.1" width="18" height="12" x="3" y="5.5" rx=".75" ry=".75"/>
 <rect style="fill:#ffcd54" width="18" height="12" x="3" y="6" rx=".75" ry=".75"/>
 <rect style="opacity:0.2" width="20" height="14" x="2" y="8.5" rx="1" ry="1"/>
 <rect style="fill:#8e8e8e" width="20" height="14" x="2" y="8" rx="1" ry="1"/>
 <rect style="opacity:0.2" width="6" height="2" x="9" y="13.5" rx=".5" ry=".5"/>
 <rect style="fill:#ececec" width="6" height="2" x="9" y="13" rx=".5" ry=".5"/>
 <path style="opacity:0.1;fill:#ffffff" d="M 3.75,2 C 3.3345,2 3,2.3345 3,2.75 V 3.25 C 3,2.8345 3.3345,2.5 3.75,2.5 H 20.25 C 20.666,2.5 21,2.8345 21,3.25 V 2.75 C 21,2.3345 20.666,2 20.25,2 Z"/>
 <path style="opacity:0.1;fill:#ffffff" d="M 3.75,4 C 3.3345,4 3,4.3345 3,4.75 V 5.25 C 3,4.8345 3.3345,4.5 3.75,4.5 H 20.25 C 20.666,4.5 21,4.8345 21,5.25 V 4.75 C 21,4.3345 20.666,4 20.25,4 Z"/>
 <path style="opacity:0.1;fill:#ffffff" d="M 3.75,6 C 3.3345,6 3,6.3345 3,6.75 V 7.25 C 3,6.8345 3.3345,6.5 3.75,6.5 H 20.25 C 20.666,6.5 21,6.8345 21,7.25 V 6.75 C 21,6.3345 20.666,6 20.25,6 Z"/>
 <g>
  <circle style="fill:#48aeff" cx="18" cy="18" r="6"/>
  <rect style="fill:#ffffff" width="2" height="2" x="15" y="15" rx=".25" ry=".25"/>
  <rect style="fill:#ffffff" width="2" height="2" x="19" y="15" rx=".25" ry=".25"/>
  <rect style="fill:#ffffff" width="2" height="2" x="19" y="19" rx=".25" ry=".25"/>
  <rect style="fill:#ffffff" width="2" height="2" x="15" y="19" rx=".25" ry=".25"/>
 </g>
</svg>
